!!!!SEGMENT: pl-kk--kk-i-291_anonim--stabat-mater.krn
!!!cenid: 17xx:2042
!!!COM: Anonim
!!!COM-rismID: pe30004985
!!!CDT:
!!!CNT:
!!!OTL: Stabat Mater
!!!PDT:
!!!AGN: Sacred
!!!SMS-siglum: PL-Kk
!!!SMS-shelfmark: Kk.I.291
!!!SMS-shelfwork: W
!!!SMS-variant:
!!!SMS-altvar:
!!!NIFC-rismSourceID: 1001144450
!!!NIFC-rismChildID: 1001144450
!!!NIFC-islandoraID: pl-kk:5047
!!!URL-pdf-islandora: https://repozytorium.nifc.pl/islandora/object/pl-kk%3A5047/datastream/PDF/view
!!!URL-scan: https://polish.musicsources.pl/pl/lokalizacje/galeria/rekopisy/5909 @EN{Scan on Polish Music Sources Website} @PL{Skany w portalu Dziedzictwo Muzyki Polskiej w otwartym dostępie}
!!!IIIF:
!!!ONB-nifc:
!!!AIN: 2 alto 1 empty 1 tenor 1 vox
!!!key:
**kern	**text	**kern	**text	**kern	**text	**kern	**text	**kern	**text
*part5	*part5	*part4	*part4	*part3	*part3	*part2	*part2	*part1	*part1
*staff5	*staff5	*staff4	*staff4	*staff3	*staff3	*staff2	*staff2	*staff1	*staff1
*Iempty	*	*Itenor	*	*Ialto	*	*Ialto	*	*Ivox	*
*I"[Basso]	*	*I"[Tenore]	*	*I"[Alto II]	*	*I"[Alto I]	*	*I"[Canto]	*
*I'[B]	*	*I'[T]	*	*I'[A II]	*	*I'[A I]	*	*I'[S]	*
*clefF4	*	*clefC4	*	*clefC3	*	*clefC3	*	*clefG2	*
*k[b-]	*	*k[b-]	*	*k[b-]	*	*k[b-]	*	*k[b-]	*
*F:	*	*F:	*	*F:	*	*F:	*	*F:	*
*M2/1	*	*M2/1	*	*M2/1	*	*M2/1	*	*M2/1	*
*met(C|)	*	*met(C|)	*	*met(C|)	*	*met(C|)	*	*met(C|)	*
=1-	=1-	=1-	=1-	=1-	=1-	=1-	=1-	=1-	=1-
!	!	!	!	!	!	!LO:TX:t=P:problem=w źródle inicjał S na początku pięciolinii (przed kluczem)	!	!LO:TX:t=P:problem=w źródle inicjał S na początku pięciolinii (przed kluczem)	!
!LO:TX:t=P:problem=w źródle inicjał S na początku pięciolinii (przed kluczem)	!	!LO:TX:t=P:problem=w źródle inicjał S na początku pięciolinii (przed kluczem)	!	!LO:TX:t=P:problem=w źródle inicjał S na początku pięciolinii (przed kluczem)	!	!	!	!	!
!	!	!	!	!	!	!LO:TX:a:Bi:t=a [5].:problem=w źródle oznaczenie znajduje się na samej górze na środku strony	!	!LO:TX:a:Bi:t=a 5:problem=w źródle oznaczenie znajduje się na samej górze na środku strony	!
!LO:TX:a:Bi:t=a 5:problem=w źródle oznaczenie znajduje się na samej górze na środku strony	!LO:TX:a:Bi:t=a 5:problem=w źródle oznaczenie znajduje się na samej górze na środku strony	!	!	!	!	!	!	!	!
!	!	!	!	!LO:TX:a:Bi:t=3	!	!	!	!	!
1c	Sta-	00r	.	0.c	Sta-	00r	.	1r	.
1c	-bat	.	.	.	.	.	.	1cc	Sta-
=2-	=2-	=2-	=2-	=2-	=2-	=2-	=2-	=2-	=2-
1A	Ma-	.	.	.	.	.	.	1cc	-bat
!	!	!	!	!LO:TX:t=P:problem=w źródle nuta 0c poprawiona na 1c	!	!	!	!	!
1F	-ter	.	.	1c,<	-bat	.	.	1a	Ma-
=3-	=3-	=3-	=3-	=3-	=3-	=3-	=3-	=3-	=3-
2.B-\	do-	1r	.	1d	Ma-	0r	.	1f	-ter
4A\	.	.	.	.	.	.	.	.	.
1G	-lo-	1B-	Sta-	1d,<	-ter	.	.	2b-/	do-
.	.	.	.	.	.	.	.	2b-/	-lo-
=4-	=4-	=4-	=4-	=4-	=4-	=4-	=4-	=4-	=4-
00F	-ro-	2c\	-bat	0f	do-	1c	Sta-	2.a/	-ro-
.	.	1A	Ma-	.	.	.	.	.	.
.	.	.	.	.	.	.	.	4f/	-sa
.	.	.	.	.	.	1c	-bat	1f	.
.	.	4G/	-ter	.	.	.	.	.	.
.	.	4F/	.	.	.	.	.	.	.
=5-	=5-	=5-	=5-	=5-	=5-	=5-	=5-	=5-	=5-
.	.	2F/	.	0f	-lo-	2.A/	Ma-	00r	.
.	.	2c\	do-	.	.	.	.	.	.
.	.	.	.	.	.	4F/	-ter	.	.
.	.	2d\	-lo-	.	.	1F	.	.	.
.	.	1c\	-ro-	.	.	.	.	.	.
=6-	=6-	=6-	=6-	=6-	=6-	=6-	=6-	=6-	=6-
0C	sa	.	.	1e	-ro-	2c/	do-	.	.
.	.	4B-\	.	.	.	2c/	-lo-	.	.
.	.	4A\	.	.	.	.	.	.	.
.	.	1G	.	1e,<	-sa	1c	-ro-	.	.
=7-	=7-	=7-	=7-	=7-	=7-	=7-	=7-	=7-	=7-
1r	.	1F	-ſa	0f	iu-	1A	-ſa	0r	.
1F	iu-	1F	iu-	.	.	2rB	.	.	.
.	.	.	.	.	.	2A/	ju-	.	.
=8-	=8-	=8-	=8-	=8-	=8-	=8-	=8-	=8-	=8-
1BB-	-xta	1B-	-xta	1f,<	-xta	1d	-xta	1r	.
1BB-	Cru-	1B-	Cru-	1f	cru-	1d	Cru-	1f	iu-
=9-	=9-	=9-	=9-	=9-	=9-	=9-	=9-	=9-	=9-
1F	-cem	1A	-ce(m)	0f,<	-ce(m)	1c	-ce(m)	2.a/	-xta
.	.	.	.	.	.	.	.	4b-\	.
1F	la-	1.F	la-	.	.	1c	la-	1cc	-cru-
=10-	=10-	=10-	=10-	=10-	=10-	=10-	=10-	=10-	=10-
1D	-cry-	.	.	1f	la-	1d	-cry-	2f/	-cem
.	.	2F/	-cry-	.	.	.	.	2ff\	la-
1D	-mo-	1F	-mo-	1f	-cry-	1d	-mo-	2ff\	-cry-
.	.	.	.	.	.	.	.	2ff\	-mo-
=11-	=11-	=11-	=11-	=11-	=11-	=11-	=11-	=11-	=11-
0C	sa	0c	-ſa	0g	-mo-	0G	-ſa	2ff\	-sa
.	.	.	.	.	.	.	.	4ee\	.
.	.	.	.	.	.	.	.	4dd\	.
.	.	.	.	.	.	.	.	1ee	.
=12-	=12-	=12-	=12-	=12-	=12-	=12-	=12-	=12-	=12-
!LO:TX:a:Bi:t=7	!	!	!	!	!	!	!	!	!
00r	.	2rE	.	0g,<	-ſa	2rB	.	2r	.
.	.	2C/	dum	.	.	2c/	du(m)	2ee\	dum
.	.	2C/	pen-	.	.	2c/	pen-	2ee\	pen-
.	.	2C/	-de-	.	.	2c/	-de-	2ee\	-de-
=13-	=13-	=13-	=13-	=13-	=13-	=13-	=13-	=13-	=13-
.	.	2.F/	-bat	1f	dum	2A/	-bat	2.ff\	-bat
.	.	.	.	.	.	2.a\	.	.	.
.	.	4G\	.	.	.	.	.	4dd\	.
*	*	*	*	*	*	*	*	*custos:dd	*
!	!	!LO:LB:g=original	!	!	!	!	!	!	!
.	.	2A/	.	1f	pen-	.	.	2cc\	[[fi]]
.	.	.	.	.	.	4g\	.	.	.
!	!	!	!	!	!	!	!	!LO:LB:g=original	!
!	!	!	!	!	!	!	!	!LO:TX:a:t=P:problem=w źródle po łamaniu systemu na początku pięciolinii błędnie wpisany znak przykluczowy b- (wpisany znak g-)	!
.	.	2B-\	.	.	.	1f\	Fi-	1dd\	Fi-
=14-	=14-	=14-	=14-	=14-	=14-	=14-	=14-	=14-	=14-
0r	.	1A	Fi-	1c	-de-	.	.	.	.
.	.	.	.	.	.	4e\	.	4cc\	.
.	.	.	.	.	.	4d\	.	4b-\	.
.	.	1A	-li-	1c,<	-bat	1e	-li-	1cc	-li-
!	!	!	!	!	!	!LO:LB:g=original	!	!	!
=15-	=15-	=15-	=15-	=15-	=15-	=15-	=15-	=15-	=15-
1r	.	0D	-(us)	1f	Fi-	1d	-uſ	2dd\	-us
.	.	.	.	.	.	.	.	2dd\	cu-
1D	Cu-	.	.	1f	-li-	2r	.	2dd\	-i(us)
.	.	.	.	.	.	2d\	cu-	2dd\	a-
!	!	!	!	!LO:LB:g=original	!	!	!	!	!
=16-	=16-	=16-	=16-	=16-	=16-	=16-	=16-	=16-	=16-
1D	-i(us)	1rG	.	0f,<	us	2d\	-i(us)	1a	-ni-
.	.	.	.	.	.	2d\	a-	.	.
1D	a-	1D	Cu-	.	.	1A	-ni-	1a	-mam
!LO:LB:g=original	!	!	!	!	!	!	!	!	!
=17-	=17-	=17-	=17-	=17-	=17-	=17-	=17-	=17-	=17-
1AA	-ni-	1A	-i(us)	1e	Cu-	1A	-mam	1cc	ge-
1AA	-ma(m)	1A	a-	1e	-i(us)	1c	ge-	1cc	-men-
=18-	=18-	=18-	=18-	=18-	=18-	=18-	=18-	=18-	=18-
1C	ge-	1E	-ni-	1e	a-	1c	-men-	1g	-te(m)
1C	-men-	2E/	-mam	1e	-ni-	1G	-te(m)	2r	.
.	.	2E/	ge-	.	.	.	.	2g/	con-
=19-	=19-	=19-	=19-	=19-	=19-	=19-	=19-	=19-	=19-
1GG	-te(m)	2.G/	-men-	1d	-mam	2r	.	1b-	-tri-
.	.	.	.	.	.	2d\	Con-	.	.
.	.	4F/	-te(m)	.	.	.	.	.	.
2rBB	.	1D	.	1d	ge-	1f	-tri-	1b-	-ſta-
2D/	Con-	.	.	.	.	.	.	.	.
=20-	=20-	=20-	=20-	=20-	=20-	=20-	=20-	=20-	=20-
1F	-tri-	2rG	.	1c	-men-	1f	-ſta-	1a	-ta(m)
.	.	1A	Con-	.	.	.	.	.	.
1F	-ſta-	.	.	1c,<	-te(m)	1c	-ta(m)	1a	et
.	.	2A/	-tri-	.	.	.	.	.	.
=21-	=21-	=21-	=21-	=21-	=21-	=21-	=21-	=21-	=21-
1C	-tam	2.c\	-ſta-	1e	con-	1rc	.	1g	do-
.	.	4B-\	-ta(m)	.	.	.	.	.	.
1C	et	1G	.	1e	-tri-	1c	et	1g	-len-
=22-	=22-	=22-	=22-	=22-	=22-	=22-	=22-	=22-	=22-
1F	do-	1rG	.	1f	-ſta-	1c	do-	1.a	.
1F	-len-	1F	et	1f,<	-ta(m)	1f	-len-	.	.
.	.	.	.	.	.	.	.	4g/	.
.	.	.	.	.	.	.	.	4f/	.
=23-	=23-	=23-	=23-	=23-	=23-	=23-	=23-	=23-	=23-
0BB-	tem	1.B-	do-	1d	et	2.f\	-tem	1f	-tem
.	.	.	.	.	.	4e\	.	.	.
!	!	!	!	!	!	!	!	!	!LO:MO:mod=per-
.	.	.	.	1d	do-	2d\	.	1.b-	pe-
!	!	!	!	!	!	!	!LO:MO:mod=per-	!	!
.	.	2A\	.	.	.	2c/	pe-	.	.
=24-	=24-	=24-	=24-	=24-	=24-	=24-	=24-	=24-	=24-
1rD	.	2G/	.	0d	len-	2.B-/	-tran-	.	.
!	!	!	!	!	!	!	!	!	!LO:MO:mod=-tran-
.	.	2F/	.	.	.	.	.	2a/	-trans-
.	.	.	.	.	.	4c\	.	.	.
1BB-	per-	1B-	-len-	.	.	4d\	.	2.f/	-si-
.	.	.	.	.	.	4e\	.	.	.
.	.	.	.	.	.	1f\	.	.	.
.	.	.	.	.	.	.	.	4g/	.
=25-	=25-	=25-	=25-	=25-	=25-	=25-	=25-	=25-	=25-
1F	-tran-	1A	-tem	1c,<	-tem	.	.	1a	.
.	.	.	.	.	.	2F/	.	.	.
!	!	!LO:LB:g=original	!	!	!	!	!	!LO:LB:g=original	!
!	!	!	!	!	!	!	!	!	!LO:MO:P=s-vit
2E\	-ſi-	2r	.	1c	per-	2G/	-si-	2g/	-bat
!	!LO:MO:P=s-vit	!	!	!	!	!	!LO:MO:P=s-vit	!	!
1.F\	-bat	1A\	per-	.	.	2F/	-bat	2.cc\	gla-
=26-	=26-	=26-	=26-	=26-	=26-	=26-	=26-	=26-	=26-
.	.	.	.	1c	-tran-	2A/	gla-	.	.
.	.	.	.	.	.	.	.	4b-/	.
.	.	2F/	-tran-	.	.	2.c/	.	2a/	.
2E\	.	2G/	-ſi-	1c	-ſi-	.	.	2g/	.
.	.	.	.	.	.	4B-/	.	.	.
!	!	!	!LO:MO:P=s-vit	!	!	!	!	!	!
1F\	gla-	2F/	-bat	.	.	4A/	.	2.a/	.
*	*	*	*	*	*	*custos:F	*	*	*
.	.	.	.	.	.	4G/	.	.	.
!	!	!	!	!	!	!LO:LB:g=original	!	!	!
=27-	=27-	=27-	=27-	=27-	=27-	=27-	=27-	=27-	=27-
!	!	!	!	!	!LO:MO:P=s-vit	!	!	!	!
.	.	1A	gla-	1c	-bat	1F	.	.	.
.	.	.	.	.	.	.	.	4g/	.
2F\	-di-	.	.	.	.	.	.	1f	.
1C	-(us)	1G	-di-	1c	gla-	1G	-di-	.	.
.	.	.	.	.	.	.	.	2e/	-di-
=28-	=28-	=28-	=28-	=28-	=28-	=28-	=28-	=28-	=28-
2r	.	0F	(us)	1c	-di-	1A	-uſ	0f	us
2F\	o	.	.	.	.	.	.	.	.
1.A	quam	.	.	1c,<	-(us).	2r	.	.	.
.	.	.	.	.	.	2F/	o	.	.
!	!	!	!	!LO:LB:g=original	!	!	!	!	!
=29-	=29-	=29-	=29-	=29-	=29-	=29-	=29-	=29-	=29-
.	.	0r	.	1F	o	1A	qua(m)	1rg	.
2B-\	.	.	.	.	.	.	.	.	.
!LO:LB:g=original	!	!	!	!	!	!	!	!	!
1c	triſ-	.	.	1F	quam	2.A/	.	1f	O
.	.	.	.	.	.	4B-/	.	.	.
=30-	=30-	=30-	=30-	=30-	=30-	=30-	=30-	=30-	=30-
1F	-tis	1F	O	1F	triſ-	1c	triſ-	1.a	quam
1r	.	1A	qua(m)	1F,<	-tis	1F	-tis	.	.
.	.	.	.	.	.	.	.	2b-/	.
=31-	=31-	=31-	=31-	=31-	=31-	=31-	=31-	=31-	=31-
1F	et	2A/	tri-	1A	et	1rc	.	1cc	triſ-
.	.	2B-\	.	.	.	.	.	.	.
2F\	af-	1c	.	1A	af-	2r	.	2f/	tis
1F\	-fli-	.	.	.	.	1f\	et	1cc\	et
=32-	=32-	=32-	=32-	=32-	=32-	=32-	=32-	=32-	=32-
.	.	1F	-ſtis	1A	-fli-	.	.	.	.
4E\	.	.	.	.	.	2f\	af-	2cc\	af-
4D\	.	.	.	.	.	.	.	.	.
1C	.	2r	.	1A,<	-cta	1e	-fli-	1cc	-fli-
.	.	2E/	et	.	.	.	.	.	.
=33-	=33-	=33-	=33-	=33-	=33-	=33-	=33-	=33-	=33-
1BB-,<	-cta	1F	af-	1B-	fu-	1d	-cta	1dd	-cta
1BB-	fu-	1F	-fli-	1B-,<	-it	2r	.	2r	.
.	.	.	.	.	.	2d\	fu-	1b-\	fu-
=34-	=34-	=34-	=34-	=34-	=34-	=34-	=34-	=34-	=34-
1E-X	-it	2.G/	-cta	1B-	il-	1e-X	-it	.	.
.	.	.	.	.	.	.	.	2a/	-it
.	.	4F/	.	.	.	.	.	.	.
1E-	il-	4G/	.	1B-,<	-la	1e-	il-	1g	il-
.	.	4A/	.	.	.	.	.	.	.
.	.	2.B-\	fu-	.	.	.	.	.	.
=35-	=35-	=35-	=35-	=35-	=35-	=35-	=35-	=35-	=35-
1BB-	-la	.	.	1B-	be-	1d	-la	1f	-la
.	.	4A\	-it	.	.	.	.	.	.
.	.	2F/	il-	.	.	.	.	.	.
2rBB	.	2G/	-la	1B-	-ne-	2d\	be-	1.b-	be-
1BB-/	be-	2F/	be-	.	.	2d\	-ne-	.	.
=36-	=36-	=36-	=36-	=36-	=36-	=36-	=36-	=36-	=36-
.	.	2G/	-ne-	1B-	-di-	2.d\	-di-	.	.
2BB-/	-ne-	2F/	-di-	.	.	.	.	2b-/	-ne-
.	.	.	.	.	.	4eny\	.	.	.
1BB-	-di-	1D	-cta	1B-,<	-cta	1f	-cta	1b-	-di-
!	!	!LO:LB:g=original	!	!	!	!	!	!	!
=37-	=37-	=37-	=37-	=37-	=37-	=37-	=37-	=37-	=37-
*	*	*	*	*	*	*	*	*custos:a	*
1F	-cta	2r	.	1c	Ma-	2re	.	1a	-cta
.	.	2A/	Ma-	.	.	1f	Ma-	.	.
!	!	!	!	!	!	!	!	!LO:LB:g=original	!
2F\	Ma-	2A/	-ter	1c	-ter	.	.	2a/	Ma-
2F\	-ter	1c\	V-	.	.	2f\	-ter	2a/	-ter
=38-	=38-	=38-	=38-	=38-	=38-	=38-	=38-	=38-	=38-
2.C/	V-	.	.	1c	V-	2.e\	V-	2.g/	V-
.	.	4B-\	-ni-	.	.	.	.	.	.
4C/	-ni-	4A\	.	.	.	4e\	-ni-	4g/	-ni-
2C/	-ge-	2G/	-ge-	1c	-ni-	2e\	-ge-	2g/	-ge-
2C/	-ni-	2G/	-ni-	.	.	2e\	-ni-	2g/	-ni-
!	!	!	!	!	!	!LO:LB:g=original	!	!	!
=39-	=39-	=39-	=39-	=39-	=39-	=39-	=39-	=39-	=39-
1F	-ti	1F	-ti	1A	-ge-	1f	-ti	0a	ti
2r	.	2rG	.	1A	-ni-	2re	.	.	.
1F\	quae	1D/	q(u)ae	.	.	1f\	quae	.	.
=40-	=40-	=40-	=40-	=40-	=40-	=40-	=40-	=40-	=40-
.	.	.	.	0A,<	ti	.	.	00r	.
2C/	me-	2E/	me-	.	.	2e\	me-	.	.
1D	-re-	1F	-re-	.	.	1d	-re-	.	.
!LO:LB:g=original	!	!	!	!LO:LB:g=original	!	!	!	!	!
=41-	=41-	=41-	=41-	=41-	=41-	=41-	=41-	=41-	=41-
1AA	-bat	1E	-bat	1A	quae	4c/	-bat	.	.
.	.	.	.	.	.	4B-/	.	.	.
.	.	.	.	.	.	4A/	.	.	.
.	.	.	.	.	.	4G/	.	.	.
2r	.	2r	.	1A	mae-	2F/	.	.	.
1D\	et	1F/	et	.	.	2F/	et	.	.
=42-	=42-	=42-	=42-	=42-	=42-	=42-	=42-	=42-	=42-
.	.	.	.	1A	-re-	1f	do-	00r	.
2D/	do-	2D/	do-	.	.	.	.	.	.
2.C/	-le-	2.E/	-le-	1A,<	-bat	1e	-le-	.	.
4BB-/	.	4F/	.	.	.	.	.	.	.
=43-	=43-	=43-	=43-	=43-	=43-	=43-	=43-	=43-	=43-
1GG	-bat	1G	-bat	1B-	et	1d	-bat	.	.
2r	.	2r	.	1B-	do-	2r	.	.	.
2GG/	et	2G/	et	.	.	2d\	et	.	.
=44-	=44-	=44-	=44-	=44-	=44-	=44-	=44-	=44-	=44-
1D	tre-	2F/	tre-	1A	-le-	1d	tre-	00r	.
.	.	2D/	.	.	.	.	.	.	.
1AA	-me-	1E	-me-	1A,<	-bat	1c	-me-	.	.
=45-	=45-	=45-	=45-	=45-	=45-	=45-	=45-	=45-	=45-
1BB-	-bat	1D	-bat	1F	et	1d	-bat	.	.
2rGG	.	2r	.	1F	tre-	2r	.	.	.
2AA/	du(m)	1A\	dum	.	.	2c/	du(m)	.	.
=46-	=46-	=46-	=46-	=46-	=46-	=46-	=46-	=46-	=46-
1D	Vi-	.	.	1F	-me-	1f	Vi-	00r	.
.	.	2A/	Vi-	.	.	.	.	.	.
1D	-de-	2.A\	-de-	1F	-bat	1f	-de-	.	.
.	.	4B-\	.	.	.	.	.	.	.
=47-	=47-	=47-	=47-	=47-	=47-	=47-	=47-	=47-	=47-
0C	-bat	1c	-bat	1G	du(m)	1e	-bat	.	.
.	.	1r	.	1G	Vi-	2r	.	.	.
.	.	.	.	.	.	1c\	na-	.	.
!	!	!LO:LB:g=original	!	!	!	!	!	!	!
=48-	=48-	=48-	=48-	=48-	=48-	=48-	=48-	=48-	=48-
1r	.	1.c	Na-	1F	-de-	.	.	0r	.
.	.	.	.	.	.	2B-/	-ti	.	.
1.c	Na-	.	.	1F,<	-bat	2A/	pe-	.	.
.	.	2B-\	-ti	.	.	2G/	-nas	.	.
=49-	=49-	=49-	=49-	=49-	=49-	=49-	=49-	=49-	=49-
.	.	2A/	poe-	1c	na-	2.F/	in-	1r	.
2B-\	-ti	2G/	-nas	.	.	.	.	.	.
.	.	.	.	.	.	4E/	.	.	.
2A\	pe-	2F/	In-	1c	-ti	2F/	.	1.cc	na-
2G\	-nas	2E/	-cly-	.	.	2G/	-cly-	.	.
!	!	!	!	!	!	!LO:LB:g=original	!	!	!
=50-	=50-	=50-	=50-	=50-	=50-	=50-	=50-	=50-	=50-
1.F	in-	1F	-ti	1c	pe-	1A	-ti	.	.
.	.	.	.	.	.	.	.	2b-/	-ti
.	.	0r	.	1c	-nas	0r	.	2a/	pe-
2C/	.	.	.	.	.	.	.	2.g/	-nas
=51-	=51-	=51-	=51-	=51-	=51-	=51-	=51-	=51-	=51-
2Eny/	.	.	.	2.B-/	in-	.	.	.	.
.	.	.	.	.	.	.	.	4f/	.
2F/	.	.	.	.	.	.	.	2.f/	in-
.	.	.	.	4B-/	-cly-	.	.	.	.
!	!	!	!	!LO:TX:t=P:problem=kreska pseudotaktowa	!	!	!	!	!
1G	-cly-	1r	.	1B-	-ti.	1r	.	.	.
.	.	.	.	.	.	.	.	4e/	.
.	.	.	.	.	.	.	.	2e/	-cly-
=52-	=52-	=52-	=52-	=52	=52	=52-	=52-	=52-	=52-
!	!	!	!	!	!	!LO:TX:t=P:problem=w źródle fragment dopisany na dole strony	!	!	!
!	!	!	!	!	!	!LO:TX:a:Bi:t=Vi	!	!	!
!LO:TX:a:i:t=4	!	!LO:TX:a:i:t=6	!	!	!	!	!	!	!
00F	ti	00.c	Inclyty	1A	quiſ	2r	.	1f	-ti
!	!	!	!	!	!	!LO:TX:a:Bi:t=de	!	!	!
.	.	.	.	.	.	2A/	qvis	.	.
*	*	*	*	*	*	*	*	*	*ij
.	.	.	.	1A	eſt	2c/	eſt	1.cc	na-
.	.	.	.	.	.	2d\	ho-	.	.
!	!	!	!	!LO:LB:g=original	!	!	!	!	!
=53-	=53-	=53-	=53-	=53-	=53-	=53-	=53-	=53-	=53-
.	.	.	.	1G	ho-	1e	-mo	.	.
.	.	.	.	.	.	.	.	2b-/	-ti
.	.	.	.	1G	-mo	2r	.	2a/	pe-
.	.	.	.	.	.	2c/	qui[[s]]	2.g/	-nas
=54-	=54-	=54-	=54-	=54-	=54-	=54-	=54-	=54-	=54-
0C	quis	.	.	1G	qui	2e\	non	.	.
.	.	.	.	.	.	.	.	4f/	.
.	.	.	.	.	.	2f\	.	1f	in-
.	.	.	.	1G	non	1g	fle-	.	.
.	.	.	.	.	.	.	.	2e/	-cly-
!LO:LB:g=original	!	!	!	!	!	!	!	!	!
=55-	=55-	=55-	=55-	=55-	=55-	=55-	=55-	=55-	=55-
1c	eſt	0A	quis	0F	-fle-	0a	-ret	0f	-ti
2d\	ho-	.	.	.	.	.	.	.	.
2.c\	.	.	.	.	.	.	.	.	.
*	*	*	*	*	*	*	*	*	*Xij
=56-	=56-	=56-	=56-	=56-	=56-	=56-	=56-	=56-	=56-
.	.	1c	eſt	0F	-ret	00r	.	00r	.
4B-\	.	.	.	.	.	.	.	.	.
4A\	.	.	.	.	.	.	.	.	.
4G\	.	.	.	.	.	.	.	.	.
2F\	-mo	2d\	ho-	.	.	.	.	.	.
2F\	qui	2.c\	.	.	.	.	.	.	.
=57-	=57-	=57-	=57-	=57-	=57-	=57-	=57-	=57-	=57-
2.A\	non	.	.	1F	(Chri-	.	.	.	.
.	.	4B-\	.	.	.	.	.	.	.
.	.	4A\	.	.	.	.	.	.	.
4B-\	.	4G\	.	.	.	.	.	.	.
1c	fle-	2F/	-mo	1F	-st)i	.	.	.	.
.	.	2F/	qui	.	.	.	.	.	.
=58-	=58-	=58-	=58-	=58-	=58-	=58-	=58-	=58-	=58-
1F	-ret	1.A	no(n)	0F	-Ma-	1c	Chri-	0r	.
00r	.	.	.	.	.	2d/	-ſti	.	.
.	.	2B-\	fle-	.	.	2.c/	Ma-	.	.
=59-	=59-	=59-	=59-	=59-	=59-	=59-	=59-	=59-	=59-
.	.	1c	-ret	1F	-tre(m)	.	.	1cc	Chri-
.	.	.	.	.	.	4B-/	-tre(m)	.	.
.	.	.	.	.	.	4A/	.	.	.
.	.	.	.	.	.	4G/	.	.	.
!	!	!	!	!	!	!	!	!LO:LB:g=original	!
.	.	00r	.	1F	Si	2F/	.	2dd\	-ſti
.	.	.	.	.	.	2F/	.	2.cc\	Ma-
=60-	=60-	=60-	=60-	=60-	=60-	=60-	=60-	=60-	=60-
.	.	.	.	1F	vi-	2.A/	Si	.	.
.	.	.	.	.	.	.	.	4b-/	.
.	.	.	.	.	.	.	.	4a/	.
.	.	.	.	.	.	4B-/	vi-	4g/	.
0r	.	.	.	1F	-de-	1c	-de-	2f/	-tre(m)
.	.	.	.	.	.	.	.	2f/	Si
=61-	=61-	=61-	=61-	=61-	=61-	=61-	=61-	=61-	=61-
!	!	!	!	!LO:TX:t=P:problem=w źródle nuta 1f poprawiona na 1F	!	!	!	!	!
.	.	.	.	1F,<	-ret	1F	-ret	2.a/	Vi-
.	.	.	.	.	.	.	.	4b-/	.
2r	.	2r	.	1f	in	2rB	.	1cc	-de-
1F\	in	1c\	in	.	.	1A/	in	.	.
=62-	=62-	=62-	=62-	=62-	=62-	=62-	=62-	=62-	=62-
.	.	.	.	1f	tan-	.	.	2f/	-ret
2F\	tan-	2c\	tan-	.	.	2A/	tan-	1cc	in
2F\	-to	2c\	-to	1f	-to	2A/	-to	.	.
2F\	Sup-	2c\	Sup-	.	.	2A/	Sup-	2cc/	tan-
=63-	=63-	=63-	=63-	=63-	=63-	=63-	=63-	=63-	=63-
1D	-pli-	2.d\	-pli-	1f	Sup-	1F	-pli-	2a/	-to
.	.	.	.	.	.	.	.	2a/	Sup-
.	.	4c\	-ci-	.	.	.	.	.	.
1F	-ci-	1A	-o	1f	-pli-	1F	-ci-	2a/	-pli-
.	.	.	.	.	.	.	.	2a/	-ci-
=64-	=64-	=64-	=64-	=64-	=64-	=64-	=64-	=64-	=64-
1C	-o	1rG	.	1e	-ci-	0c	-o	0g	-o
!	!	!LO:LB:g=original	!	!	!	!	!	!	!
2rBB	.	2r	.	1e,<	-o	.	.	.	.
2C/	quis	2G/	quis	.	.	.	.	.	.
=65-	=65-	=65-	=65-	=65-	=65-	=65-	=65-	=65-	=65-
2F\	non	2A/	non	1c	Quis	00r	.	00r	.
2F\	poſ-	2A/	poſ-	.	.	.	.	.	.
*	*	*	*	*custos:c	*	*	*	*	*
2E\	-set	2G/	-set	1c	non	.	.	.	.
1A\	Con-	1c\	con-	.	.	.	.	.	.
!	!	!	!	!LO:LB:g=original	!	!	!	!	!
=66-	=66-	=66-	=66-	=66-	=66-	=66-	=66-	=66-	=66-
.	.	.	.	1c	[p]oſ-	.	.	.	.
2F\	-triſ-	2A\	-tri-	.	.	.	.	.	.
1E	-ta-	1G	-ſta-	1c	-set	.	.	.	.
=67-	=67-	=67-	=67-	=67-	=67-	=67-	=67-	=67-	=67-
0D	-ri	1A	-ri	1d	con-	2r	.	2r	.
.	.	.	.	.	.	1f	pi-	2a/	pi-
.	.	00r	.	1d	-tri-	.	.	2b-/	-am
.	.	.	.	.	.	2f\	-a(m)	1a/	Ma-
=68-	=68-	=68-	=68-	=68-	=68-	=68-	=68-	=68-	=68-
00r	.	.	.	1d	-ſta-	1f	Ma-	.	.
.	.	.	.	.	.	.	.	4g/	.
.	.	.	.	.	.	.	.	4f/	.
.	.	.	.	1c	-ri	1e	-tre(m)	2a/	.
.	.	.	.	.	.	.	.	2g/	-trem
!	!	!	!	!	!	!LO:LB:g=original	!	!	!
=69-	=69-	=69-	=69-	=69-	=69-	=69-	=69-	=69-	=69-
.	.	.	.	1A	pi-	2f\	Con-	2a/	con-
.	.	.	.	.	.	2e\	-tem-	2.ee\	-tem-
.	.	0r	.	1A	-am	4c\	-pla-	.	.
.	.	.	.	.	.	4d\	.	4dd\	.
.	.	.	.	.	.	4e\	.	1cc\	.
.	.	.	.	.	.	4f\	.	.	.
=70-	=70-	=70-	=70-	=70-	=70-	=70-	=70-	=70-	=70-
0r	.	.	.	1G	Ma-	2g\	.	.	.
.	.	.	.	.	.	2e\	.	4b-\	-pla-
.	.	.	.	.	.	.	.	4a\	.
.	.	2rG	.	1G	-tre(m)	1d	.	1b-	.
.	.	2G/	do-	.	.	.	.	.	.
!LO:LB:g=original	!	!	!	!	!	!	!	!LO:LB:g=original	!
=71-	=71-	=71-	=71-	=71-	=71-	=71-	=71-	=71-	=71-
2r	.	2A/	-len-	1c	con-	1c	-ri	0cc	-ri
2C/	do-	2G/	.	.	.	.	.	.	.
1F	-len-	1A	.	1c	-tem-	2r	.	.	.
.	.	.	.	.	.	2c/	do-	.	.
=72-	=72-	=72-	=72-	=72-	=72-	=72-	=72-	=72-	=72-
1C	-te(m)	1G	-tem	1e	-pla-	2c/	-len-	00r	.
.	.	.	.	.	.	2c/	-te(m)	.	.
2rBB	.	2rG	.	1e	-ri	2.c/	cu(m)	.	.
2C/	cu(m)	2G/	Cu(m)	.	.	.	.	.	.
.	.	.	.	.	.	8B-/L	.	.	.
.	.	.	.	.	.	8c/J	.	.	.
=73-	=73-	=73-	=73-	=73-	=73-	=73-	=73-	=73-	=73-
1D	Fi-	1F	Fi-	1d	do-	4B-/	fi-	.	.
.	.	.	.	.	.	4A/	.	.	.
.	.	.	.	.	.	1A	-li-	.	.
1BB-	-li-	1D	-li-	1d	-len-	.	.	.	.
.	.	.	.	.	.	2G/	-o	.	.
=74-	=74-	=74-	=74-	=74-	=74-	=74-	=74-	=74-	=74-
1AA	-o	2E/	-o	1c	-te(m)	2.A/	.	1cc	pro
.	.	2A/	pro	.	.	.	.	.	.
.	.	.	.	.	.	4B-/	.	.	.
2rGG	.	2A/	pec-	1c	cu(m)	4c/	.	2a/	pec-
.	.	.	.	.	.	4d/	.	.	.
2AA/	pro	2A/	-ca-	.	.	2e\	.	1cc\	-ca-
=75-	=75-	=75-	=75-	=75-	=75-	=75-	=75-	=75-	=75-
1C	pec-	1G	-tis	2.c/	Fi-	2re	.	.	.
.	.	.	.	.	.	2g\	pro	4b-/	.
.	.	.	.	4c/	-li-	.	.	4a/	.
!	!	!	!	!LO:TX:t=P:problem=kreska pseudotaktowa	!	!	!	!	!
1C	-ca-	2rG	.	1c	-o	2e\	pec-	1g	-tis
.	.	2E/	Su-	.	.	1g\	-ca-	.	.
=76-	=76-	=76-	=76-	=76	=76	=76-	=76-	=76-	=76-
0GG	-tis	1G	-ae	1B-	Pro	.	.	2g/	Su-
.	.	.	.	.	.	4f\	.	2g/	-ae
.	.	.	.	.	.	4e\	.	.	.
.	.	1G	gen-	1B-	pec-	2d\	-tis	1g	gen-
.	.	.	.	.	.	2d\	Vi-	.	.
=77-	=77-	=77-	=77-	=77-	=77-	=77-	=77-	=77-	=77-
*	*^	*	*	*	*	*	*	*	*
2r	.	.	0D	-tis	1A	-ca-	2f\	-dit	0a	-tis
2D/	Su-	[[pro	.	.	.	.	2f\	Je-	.	.
!	!	!	!	!	!LO:LB:g=original	!	!LO:LB:g=original	!	!	!
2F\	-ae	pec-	.	.	1A	-tiſ	2d/	-ſum	.	.
2F\	gen-	-ca-	.	.	.	.	2d/	in	.	.
=78-	=78-	=78-	=78-	=78-	=78-	=78-	=78-	=78-	=78-	=78-
2D\	-tis	-tis	0r	.	1A	Su-	2.f\	tor-	00r	.
2D/	Vi-	Su-	.	.	.	.	.	.	.	.
.	.	.	.	.	.	.	4e\	.	.	.
2F\	-dit	-ae	.	.	1A	-ae	2c/	-men-	.	.
2F\	Je-	gen-	.	.	.	.	2d/	-tis	.	.
=79-	=79-	=79-	=79-	=79-	=79-	=79-	=79-	=79-	=79-	=79-
1C	-ſu(m)	-tis]]	2r	.	1G	gen-	2e\	et	.	.
.	.	.	1c	et	.	.	2c/	fla-	.	.
0r	.	.	.	.	1G,<	-tis	2d\	-gel-	.	.
.	.	.	2B-\	fla-	.	.	2d,<\	-liſ	.	.
!	!	!	!LO:LB:g=original	!	!	!	!	!	!	!
*	*v	*v	*	*	*	*	*	*	*	*
=80-	=80-	=80-	=80-	=80-	=80-	=80-	=80-	=80-	=80-
.	.	2c\	-gel-	1c	Vi-	2e\	Sub-	0r	.
.	.	2F/	-lis	.	.	2A/	-di-	.	.
1r	.	2.A/	Sub-	1c	-dit	4A/	-tu(m)	.	.
.	.	.	.	.	.	4B-/	.	.	.
.	.	.	.	.	.	4c/	.	.	.
.	.	4B-\	-di-	.	.	4d\	.	.	.
=81-	=81-	=81-	=81-	=81-	=81-	=81-	=81-	=81-	=81-
2r	.	1c	-tu(m)	1c	Je-	1e	.	2r	.
2C/	Vi-	.	.	.	.	.	.	2g/	Vi-
2F\	-dit	0r	.	1c,<	-ſu(m)	2r	.	2a/	-dit
!	!	!	!	!	!	!	!	!LO:TX:t=P:problem=w źródle poprawiony tekst na "Jesum dulcem natum"	!
2F\	Su-	.	.	.	.	2c/	Vi-	2a/	Je-
=82-	=82-	=82-	=82-	=82-	=82-	=82-	=82-	=82-	=82-
2D/	-u(m)	.	.	1d	in	2f\	-dit	2a/	-sum
2D/	dul-	.	.	.	.	2f\	Su-	2a/	dul-
2G\	-cem	1r	.	1d	tor-	2d\	-u(m)	2b-/	-ce(m)
!LO:LB:g=original	!	!	!	!	!	!	!	!	!
4G\	na-	.	.	.	.	2d\	dul-	2b-/	na-
4F\	.	.	.	.	.	.	.	.	.
=83-	=83-	=83-	=83-	=83-	=83-	=83-	=83-	=83-	=83-
4E\	.	2r	.	1e	-men-	2g\	-cem	1cc	-tu(m)
4D\	.	.	.	.	.	.	.	.	.
2C/	-tu(m)	2c\	Mo-	.	.	4g\	na-	.	.
.	.	.	.	.	.	4f\	.	.	.
2r	.	2c\	-ri-	1e,<	-tis	4e\	.	2g/	mo-
.	.	.	.	.	.	4d\	.	.	.
2C/	Mo-	2c\	-en-	.	.	2c/	-tu(m)	2g/	-ri-
=84-	=84-	=84-	=84-	=84-	=84-	=84-	=84-	=84-	=84-
2F\	-ri-	2A/	-tem	1f	et	2c/	Mo-	2a/	-en-
2F\	-en-	2A/	de-	.	.	2f\	-ri-	2a/	-te(m)
2D/	-tem	2d\	-ſo-	1f	fla-	2f\	-en-	2a/	de-
2D/	de-	4d\	-la-	.	.	2d/	-te(m)	2a/	-ſo-
.	.	4c\	.	.	.	.	.	.	.
=85-	=85-	=85-	=85-	=85-	=85-	=85-	=85-	=85-	=85-
2G\	-ſo-	4B-\	.	1g	-gel-	2d/	de-	1b-	-la-
.	.	4A\	.	.	.	.	.	.	.
4G\	-la-	2G/	-tu(m)	.	.	2g\	-ſo-	.	.
4F\	.	.	.	.	.	.	.	.	.
!	!	!	!	!	!	!LO:LB:g=original	!	!	!
4E\	.	2r	.	1g	-[l]is	4g\	-la-	2cc/	-tu(m)
4D\	.	.	.	.	.	4f\	.	.	.
*	*	*	*	*	*	*	*	*custos:g	*
2C/	-tu(m)	1c\	-du(m)	.	.	4e\	.	2cc/	dum
.	.	.	.	.	.	4d\	.	.	.
!	!	!	!	!	!	!	!	!LO:LB:g=original	!
=86-	=86-	=86-	=86-	=86-	=86-	=86-	=86-	=86-	=86-
2rBB	.	.	.	2.g\	Sub-	2e\	.	2g/	e-
2C/	dum	2c\	e-	.	.	2c/	-tu(m)	2ee\	-mi-
.	.	.	.	4g\	-di-	.	.	.	.
2G\	e-	2B-\	-mi-	[1gl;<	-tu(m)	2r	.	2dd\	-sit
2C/	-mi-	2c\	-ſit	.	.	2c/	du(m)	2.ee\	Spi-
=87-	=87-	=87-	=87-	=87-	=87-	=87-	=87-	=87-	=87-
!	!	!	!	!	!	!LO:TX:t=P:problem=2F poprawione na 2G	!	!	!
4C/	-sit	1e	Spi-	0g_	.	2G/	e-	.	.
4D/	.	.	.	.	.	.	.	4dd\	.
4E\	.	.	.	.	.	2.g\	-mi-	1cc	.
4F\	.	.	.	.	.	.	.	.	.
1G	.	1d	-ri-	.	.	.	.	.	.
.	.	.	.	.	.	4f\	.	.	.
.	.	.	.	.	.	2d\	-sit	2b-/	-ri-
=88-	=88-	=88-	=88-	=88-	=88-	=88-	=88-	=88-	=88-
!	!	!LO:TX:t=P:problem=w źródle podwójna fermata	!	!	!	!	!	!LO:TX:t=P:problem=w źródle podwójna fermata	!
!	!	!LO:TX:a:t=P:problem=very like terminal long	!	!	!	!	!	!LO:TX:a:t=P:problem=very like terminal long	!
2.C/	Spi-	0cl;;	-tu(m)	0g]	.	2.e\	Spi-	0ddl;;	tum
4C/	-ri-	.	.	.	.	4e\	-ri-	.	.
!LO:TX:t=P:problem=w źródle podwójna fermata	!	!	!	!	!	!LO:TX:t=P:problem=w źródle podwójna fermata	!	!	!
!LO:TX:a:t=P:problem=very like terminal long	!	!	!	!	!	!LO:TX:a:t=P:problem=very like terminal long	!	!	!
1Cl/;;	-tum	.	.	.	.	1el\;;	-tu(m)	.	.
=89-	=89-	=89-	=89-	=89-	=89-	=89-	=89-	=89-	=89-
*clefF4	*	*clefC4	*	*	*	*clefC3	*	*clefG2	*
*	*	*k[b-]	*	*	*	*k[b-]	*	*k[b-e-]	*
*M2/1	*	*M2/1	*	*M2/1	*	*M2/1	*	*M2/1	*
*met(C|)	*	*met(C|)	*	*met(C|)	*	*met(C|)	*	*met(C|)	*
*	*	*custos:d	*	*	*	*	*	*	*
!	!	!	!	!	!	!LO:TX:t=P:problem=w źródle inicjał E na początku tej części (przed kluczem)	!	!LO:TX:t=P:problem=w źródle inicjał E na początku tej części (przed kluczem)	!
!LO:TX:t=P:problem=w źródle inicjał E na początku tej części (przed kluczem)	!	!LO:TX:t=P:problem=w źródle inicjał E na początku tej części (przed kluczem)	!	!	!	!	!	!	!
!	!	!	!	!	!	!	!	!LO:TX:t=P:problem=w źródle błędnie dopisany znak przykluczowy e- (tylko na 1. pięciolinii tej części)	!
1.F	E-	1c	E-	0a	E-	00r	.	0r	.
!	!	!LO:LB:g=original	!	!	!	!	!	!	!
.	.	2d\	-ia	.	.	.	.	.	.
2D\	.	1f\	Ma-	.	.	.	.	.	.
!LO:LB:g=original	!	!	!	!LO:LB:g=original	!	!	!	!	!
=90-	=90-	=90-	=90-	=90-	=90-	=90-	=90-	=90-	=90-
1D	-ia	.	.	0a	-ia	.	.	1r	.
.	.	4e\	.	.	.	.	.	.	.
.	.	4d\	.	.	.	.	.	.	.
!LO:TX:t=P:problem=w źrodle 1F poprawione na 1A	!	!	!	!	!	!	!	!	!
1A	Ma-	1e	.	.	.	.	.	1cc	E-
=91-	=91-	=91-	=91-	=91-	=91-	=91-	=91-	=91-	=91-
0D	-ter	1.d	-ter	0a	Ma-	0r	.	2dd\	-ia
.	.	.	.	.	.	.	.	1ff	Ma-
.	.	.	.	.	.	.	.	.	.
.	.	4c\	fons	.	.	.	.	4eeny\	.
.	.	4B-\	.	.	.	.	.	4dd\	.
=92-	=92-	=92-	=92-	=92-	=92-	=92-	=92-	=92-	=92-
00r	.	1A	.	0a	-ter	1c	E-	1eeny	.
.	.	2D/	a-	.	.	2d\	-ia	1dd	-ter
.	.	2d\	-mo-	.	.	1f\	Ma-	.	.
=93-	=93-	=93-	=93-	=93-	=93-	=93-	=93-	=93-	=93-
.	.	4e\	.	1g	fonſ	.	.	1r	.
.	.	4d\	.	.	.	.	.	.	.
.	.	4c\	.	.	.	4e\	.	.	.
.	.	4B-\	.	.	.	4d\	.	.	.
.	.	1c	.	1g	a-	1e	.	1eeny	fons
=94-	=94-	=94-	=94-	=94-	=94-	=94-	=94-	=94-	=94-
1r	.	1d	-ris	1f	-mo-	1d,<	-ter	2.ff\	a-
.	.	.	.	.	.	.	.	4eeny\	.
1D	fons	2r	.	1f,<	-ris	1d	fonſ	4dd\	.
.	.	.	.	.	.	.	.	4cc\	.
.	.	2A/	a-	.	.	.	.	2.dd\	mo-
=95-	=95-	=95-	=95-	=95-	=95-	=95-	=95-	=95-	=95-
*	*	*	*	*	*	*custos:f	*	*	*
1G	a-	4B-\	-mo-	0d	-me	1d	a-	.	.
.	.	4A\	.	.	.	.	.	4cc\	.
.	.	4G/	.	.	.	.	.	4b-\	.
.	.	4F/	.	.	.	.	.	4a\	.
!	!	!	!	!	!	!LO:PB:g=original	!	!LO:LB:g=original	!
*	*	*	*	*	*	*	*	*k[b-]	*
1G	-mo-	1G	.	.	.	1g	-mo-	1b-	.
=96-	=96-	=96-	=96-	=96-	=96-	=96-	=96-	=96-	=96-
2.D/	.	1.A	.	0d	Sen-	1.f	.	1a	-ris
4E\	.	.	.	.	.	.	.	.	.
2F\	.	.	.	.	.	.	.	00r	.
2G\	.	2B-\	.	.	.	4e\	.	.	.
.	.	.	.	.	.	4d\	.	.	.
=97-	=97-	=97-	=97-	=97-	=97-	=97-	=97-	=97-	=97-
2C/	.	2c\	.	0g	ti-	2e\	.	.	.
2F\	.	2B-\	.	.	.	2d\	.	.	.
4C/	.	2c\	-ris	.	.	1e	.	.	.
4D\	.	.	.	.	.	.	.	.	.
4E\	.	2.G/	me	.	.	.	.	.	.
4F\	.	.	.	.	.	.	.	.	.
=98-	=98-	=98-	=98-	=98-	=98-	=98-	=98-	=98-	=98-
0G	-ris	.	.	0g,<	-re	2c/	.	.	.
.	.	4A\	.	.	.	.	.	.	.
.	.	4B-\	.	.	.	4G/	.	.	.
.	.	4c\	.	.	.	4A/	.	.	.
*	*	*custos:G	*	*	*	*	*	*	*
.	.	2d\	.	.	.	4B-/	.	0r	.
.	.	.	.	.	.	4c/	.	.	.
!	!	!LO:PB:g=original	!	!	!	!	!	!	!
.	.	4G/	Sen-	.	.	2d\	.	.	.
.	.	4A/	.	.	.	.	.	.	.
=99-	=99-	=99-	=99-	=99-	=99-	=99-	=99-	=99-	=99-
1r	.	4B-\	.	0g	Vim	4G/	.	.	.
.	.	4c\	.	.	.	4A/	.	.	.
.	.	2d\	-ti-	.	.	4B-/	.	.	.
.	.	.	.	.	.	4c/	.	.	.
1G	me	2G/	-re	.	.	2d\	.	1b-	me
.	.	2d\	Vim	.	.	2G/	.	.	.
=100-	=100-	=100-	=100-	=100-	=100-	=100-	=100-	=100-	=100-
1G	Sen-	4G/	do-	0g	do-	1d	-ris	1b-	Sen-
.	.	4A\	.	.	.	.	.	.	.
.	.	4B-\	.	.	.	.	.	.	.
.	.	4c\	.	.	.	.	.	.	.
1G	-ti-	2d\	.	.	.	2rB	.	1b-	-ti-
.	.	2G/	-lo-	.	.	2d\	Me	.	.
=101-	=101-	=101-	=101-	=101-	=101-	=101-	=101-	=101-	=101-
1D	-re	0A	-ris	0f	-lo-	1d	ſen-	1a	-re
1D	Vim	.	.	.	.	1d	-ti-	1dd	Vim
=102-	=102-	=102-	=102-	=102-	=102-	=102-	=102-	=102-	=102-
1F	do-	0r	.	0f,<	-ris	1A	-re	2.cc/	do-
.	.	.	.	.	.	.	.	4b-/	.
1F	-lo-	.	.	.	.	1A	Vim	1a	-lo-
=103-	=103-	=103-	=103-	=103-	=103-	=103-	=103-	=103-	=103-
1C	-ris	2rG	.	0e,<	fac	2.c/	do-	1g	-ris
.	.	2G/	fac	.	.	.	.	.	.
.	.	.	.	.	.	4B-/	.	.	.
2r	.	1c	ut	.	.	2A/	-lo-	2rg	.
2C/	fac	.	.	.	.	2G/	.	2g/	fac
=104-	=104-	=104-	=104-	=104-	=104-	=104-	=104-	=104-	=104-
1F	ut	1A	te-	0f,<	-ut	0F	-ris	1a	ut
*custos:G	*	*	*	*	*	*	*	*	*
1D	te-	1d	-cu(m)	.	.	.	.	1a	te-
!LO:PB:g=original	!	!	!	!	!	!	!	!	!
=105-	=105-	=105-	=105-	=105-	=105-	=105-	=105-	=105-	=105-
1.G	.	2rG	.	0d	-te-	00r	.	1.b-	-cum
.	.	4G/	lu-	.	.	.	.	.	.
.	.	4A\	.	.	.	.	.	.	.
.	.	4B-\	.	.	.	.	.	.	.
.	.	4c\	.	.	.	.	.	.	.
4F\	.	1d\	.	.	.	.	.	4a/	.
4E\	.	.	.	.	.	.	.	4g/	.
=106-	=106-	=106-	=106-	=106-	=106-	=106-	=106-	=106-	=106-
*	*	*	*	*custos:c	*	*	*	*	*
2F\	.	.	.	0d	-cum	.	.	2a/	lu-
2G\	.	2B-\	-ge-	.	.	.	.	2g/	.
2.D/	-cum	1A	-am	.	.	.	.	4f/	.
.	.	.	.	.	.	.	.	4d/	.
.	.	.	.	.	.	.	.	4f/	.
4E\	.	.	.	.	.	.	.	4g/	.
!	!	!	!	!LO:PB:g=original	!	!	!	!	!
=107-	=107-	=107-	=107-	=107-	=107-	=107-	=107-	=107-	=107-
!	!	!	!	!LO:TX:t=P:problem=fragment (takty 107-121) w skanie 0012	!	!	!	!	!
4F\	.	2rG	.	0c	Lu-	00r	.	4a/	.
4G\	.	.	.	.	.	.	.	4b-\	.
1A	.	4F/	lu-	.	.	.	.	2.cc\	.
.	.	4G/	.	.	.	.	.	.	.
.	.	4A\	.	.	.	.	.	.	.
.	.	4B-\	.	.	.	.	.	4b-\	.
2F\	lu-	1c\	.	.	.	.	.	2a/	.
=108-	=108-	=108-	=108-	=108-	=108-	=108-	=108-	=108-	=108-
2E\	.	.	.	1c	-ge-	.	.	2g/	.
2F\	.	2A/	.	.	.	.	.	1f	.
1C	-ge-	1G	-ge-	0c,<	-am	.	.	.	.
.	.	.	.	.	.	.	.	2e/	-ge-
=109-	=109-	=109-	=109-	=109-	=109-	=109-	=109-	=109-	=109-
*	*	*custos:F	*	*	*	*	*	*	*
0F	-am	1F	-a(m)	.	.	1r	.	0f	-am
!	!	!LO:LB:g=original	!	!	!	!	!	!	!
.	.	1F	fac	1c	fac	1f	fac	.	.
!	!	!	!	!	!	!LO:LB:g=original	!	!LO:PB:g=original	!
=110-	=110-	=110-	=110-	=110-	=110-	=110-	=110-	=110-	=110-
00r	.	1B-	ut	1d	ut	1f	ut	1rg	.
.	.	1B-	ar-	2.d\	ar-	1f	ar-	1f	Fac
.	.	.	.	4d\	.	.	.	.	.
=111-	=111-	=111-	=111-	=111-	=111-	=111-	=111-	=111-	=111-
.	.	1G	-de-	1e	-de-	1g	-de-	1b-	ut
.	.	1G	-at	1e,<	-at	1g	-at	1b-	ar-
=112-	=112-	=112-	=112-	=112-	=112-	=112-	=112-	=112-	=112-
0r	.	2.c\	Cor	1e	cor	2g\	Cor	2g/	-de-
.	.	.	.	.	.	1e	me-	2g/	-at
.	.	4B-\	.	.	.	.	.	.	.
.	.	2.A\	me-	[>[<2e\	me-	.	.	2.cc\	Cor
.	.	.	.	2e\]]	-u(m)	2c/	-u(m)	.	.
.	.	4G/	-u(m)	.	.	.	.	4b-/	.
=113-	=113-	=113-	=113-	=113-	=113-	=113-	=113-	=113-	=113-
1r	.	1F	.	0f	in	1c	.	2.a/	me-
.	.	.	.	.	.	.	.	4g/	.
2rBB	.	2r	.	.	.	2rB	.	1f	-um
2BB-/	in	2d\	in	.	.	2B-/	in	.	.
=114-	=114-	=114-	=114-	=114-	=114-	=114-	=114-	=114-	=114-
2G\	a-	2c\	a-	0f	a-	2A/	a-	00r	.
2.BB-/	-man-	1d	-man-	.	.	1B-	-man-	.	.
4C/	.	.	.	.	.	.	.	.	.
4D/	.	4c\	.	.	.	4A/	.	.	.
4E\	.	4B-\	-do	.	.	4G/	.	.	.
=115-	=115-	=115-	=115-	=115-	=115-	=115-	=115-	=115-	=115-
2F\	.	2A/	.	0f	-man-	2F/	-do	.	.
*	*	*	*	*	*	*	*ij	*	*
2BB-/	-do	2B-\	Chri-	.	.	2d\	in	.	.
1r	.	2A\	-ſtu(m)	.	.	2c/	a-	.	.
!	!	!LO:TX:t=P:problem=w źródle 4B- poprawione na 2.B-	!	!	!	!	!	!	!
.	.	2.B-\	.	.	.	1d\	-man-	.	.
=116-	=116-	=116-	=116-	=116-	=116-	=116-	=116-	=116-	=116-
!	!	!	!	!LO:TX:t=P:problem=fragment nieczytelny	!	!	!	!	!
2r	.	.	.	0fyy	-do	.	.	2r	.
!	!	!LO:TX:t=P:problem=w źródle 2A poprawione na 4A	!	!	!	!	!	!	!
.	.	4A/	.	.	.	.	.	.	.
*	*ij	*	*	*	*	*	*	*	*
2BB-,</	in	2B-/	De-	.	.	4c\	.	2dd\	in
.	.	.	.	.	.	4B-\	.	.	.
2F\	a-	1F	-u(m)	.	.	2A/	-do	2cc\	a-
*	*	*	*	*	*	*	*Xij	*	*
2.BB-/	-man-	.	.	.	.	1B-/	Chri-	1dd\	-man-
=117-	=117-	=117-	=117-	=117-	=117-	=117-	=117-	=117-	=117-
.	.	00r	.	0d	(Chri-	.	.	.	.
4C/	.	.	.	.	.	.	.	.	.
4D/	.	.	.	.	.	4A/	.	4cc\	.
4E\	.	.	.	.	.	4G/	.	4b-\	.
!LO:LB:g=original	!	!	!	!	!	!	!	!	!
2F\	-do	.	.	.	.	2F/	-ſtu(m)	2a/	-do
*	*Xij	*	*	*	*	*	*	*	*
1G\	Chri-	.	.	.	.	1B-/	(Christ)-	1b-\	.
=118-	=118-	=118-	=118-	=118-	=118-	=118-	=118-	=118-	=118-
.	.	.	.	1.d	-st)um	.	.	.	.
2A\	-ſtu(m)	.	.	.	.	2c/	.	4a/	Chri-
.	.	.	.	.	.	.	.	4g/	.
2.B-\	De-	.	.	.	.	2.d\	-u(m)	2.f/	.
.	.	.	.	2d\	De-	.	.	.	.
4A\	.	.	.	.	.	4e\	.	4g/	-ſtum
=119-	=119-	=119-	=119-	=119-	=119-	=119-	=119-	=119-	=119-
4F\	.	0r	.	1c,<	-um	2f\	ut	4a/	.
4G\	.	.	.	.	.	.	.	4b-/	.
4A\	.	.	.	.	.	2.c/	Si-	2.cc/	.
4B-\	.	.	.	.	.	.	.	.	.
2.c\	.	.	.	1c	ut	.	.	.	.
.	.	.	.	.	.	4d\	.	4b-/	.
.	.	.	.	.	.	4e\	.	2.g/	ut
4B-\	.	.	.	.	.	4f\	.	.	.
!	!	!	!	!	!	!LO:LB:g=original	!	!	!
=120-	=120-	=120-	=120-	=120-	=120-	=120-	=120-	=120-	=120-
0G	um	1rG	.	0B-	Si-	2.g\	.	.	.
.	.	.	.	.	.	.	.	4f/	.
.	.	.	.	.	.	.	.	4g/	.
.	.	.	.	.	.	4f\	.	4a/	.
.	.	2rG	.	.	.	1d	-bi	1b-	Si-
.	.	2G/	ut	.	.	.	.	.	.
=121-	=121-	=121-	=121-	=121-	=121-	=121-	=121-	=121-	=121-
00r	.	4G/	Si-	1B-,<	-bi	2r	.	2b-/	-bi
.	.	4F/	.	.	.	.	.	.	.
.	.	4G/	.	.	.	2.d\	Com-	4a/	.
.	.	4A/	.	.	.	.	.	4g/	.
.	.	2.B-/	.	1B-	Com-	.	.	1f	.
.	.	.	.	.	.	4c\	.	.	.
.	.	.	.	.	.	4d\	.	.	.
.	.	4A/	.	.	.	4e\	.	.	.
!	!	!	!	!LO:LB:g=original	!	!	!	!LO:LB:g=original	!
=122-	=122-	=122-	=122-	=122-	=122-	=122-	=122-	=122-	=122-
.	.	2F/	-bi	1.A	pla-	2.f\	.	1rg	.
.	.	2D/	com-	.	.	.	.	.	.
.	.	.	.	.	.	4e\	.	.	.
.	.	2.F/	-pla-	.	.	2c/	.	2rg	.
.	.	.	.	2A/	-ce-	2d\	.	2f/	com-
.	.	4E/	.	.	.	.	.	.	.
!	!	!LO:LB:g=original	!	!	!	!	!	!	!
=123-	=123-	=123-	=123-	=123-	=123-	=123-	=123-	=123-	=123-
0r	.	2.C/	.	0G,<	-am	0e	-pla-	2g/	-pla-
.	.	.	.	.	.	.	.	4c/	.
.	.	4BB-/	.	.	.	.	.	4d/	.
.	.	4C/	.	.	.	.	.	4e/	.
.	.	4D/	.	.	.	.	.	4f/	.
.	.	1E/	.	.	.	.	.	2.g/	.
=124-	=124-	=124-	=124-	=124-	=124-	=124-	=124-	=124-	=124-
1r	.	.	.	1G	Vir-	0c	-ce-	.	.
.	.	.	.	.	.	.	.	4f/	.
.	.	2F/	-ce-	.	.	.	.	1f	.
1C	Vir-	1C	-am	1G,<	-go	.	.	.	.
.	.	.	.	.	.	.	.	2e/	-ce-
=125-	=125-	=125-	=125-	=125-	=125-	=125-	=125-	=125-	=125-
!	!	!	!	!	!	!	!	!LO:TX:a:i:t=4	!
1D	-go	1rB	.	1.F	Vir-	0B-	-am	00f	-am
1.F	Vir-	1c	Vir-	.	.	.	.	.	.
.	.	.	.	2F/	-gi-	.	.	.	.
=126-	=126-	=126-	=126-	=126-	=126-	=126-	=126-	=126-	=126-
.	.	1d	-go	1F,<	-nu(m)	00r	.	.	.
2F\	-gi-	.	.	.	.	.	.	.	.
2.F\	-nu(m)	1.f	Vir-	1F	prae-	.	.	.	.
4E\	.	.	.	.	.	.	.	.	.
=127-	=127-	=127-	=127-	=127-	=127-	=127-	=127-	=127-	=127-
4D\	.	.	.	0F	cla-	.	.	00r	.
4C\	.	.	.	.	.	.	.	.	.
1D	.	2f\	-gi-	.	.	.	.	.	.
.	.	2.f\	-nu(m)	.	.	.	.	.	.
4C/	.	.	.	.	.	.	.	.	.
4BB-/	.	4e\	.	.	.	.	.	.	.
=128-	=128-	=128-	=128-	=128-	=128-	=128-	=128-	=128-	=128-
2AA/	prae-	2c\	prae-	0F,<	-ra	0r	.	.	.
1BB-	-cla-	1d	-cla-	.	.	.	.	.	.
4AA/	.	4c\	.	.	.	.	.	.	.
4GG/	.	4B-\	.	.	.	.	.	.	.
=129-	=129-	=129-	=129-	=129-	=129-	=129-	=129-	=129-	=129-
0FF	-ra	0A	-ra	0F	mi-	2rG	.	1r	.
.	.	.	.	.	.	2F/	I-	.	.
.	.	.	.	.	.	2c/	-am	2rg	.
.	.	.	.	.	.	2d/	mi-	2f/	i-
=130-	=130-	=130-	=130-	=130-	=130-	=130-	=130-	=130-	=130-
00r	.	00r	.	1F	-hi	2c/	-hi	2cc\	-am
.	.	.	.	.	.	2.f\	non	2dd\	mi-
.	.	.	.	1F,<	iam	.	.	2cc\	-hi
.	.	.	.	.	.	4g\	ſis	.	.
.	.	.	.	.	.	4a\	.	2ff\	non
.	.	.	.	.	.	4f\	.	.	.
=131-	=131-	=131-	=131-	=131-	=131-	=131-	=131-	=131-	=131-
.	.	.	.	1c	non	2g\	a-	2ee\	ſis
.	.	.	.	.	.	4c\	.	1ee	a-
.	.	.	.	.	.	4d\	.	.	.
.	.	.	.	1c	ſis	4e\	.	.	.
.	.	.	.	.	.	4f\	.	.	.
.	.	.	.	.	.	1g\	.	4dd\	-ma-
.	.	.	.	.	.	.	.	4cc\	.
=132-	=132-	=132-	=132-	=132-	=132-	=132-	=132-	=132-	=132-
0r	.	00r	.	1G	a-	.	.	2b-/	.
.	.	.	.	.	.	2e\	.	1cc	.
*	*	*	*	*	*	*custos:c	*	*	*
.	.	.	.	1G	-ma-	1d	-ma-	.	.
.	.	.	.	.	.	.	.	2b-/	.
!	!	!	!	!	!	!LO:LB:g=original	!	!	!
=133-	=133-	=133-	=133-	=133-	=133-	=133-	=133-	=133-	=133-
1r	.	.	.	0c,<	-ra	1c	-ra	1cc	-ra
0C	fac	.	.	.	.	0e	Fac	0g	fac
=134-	=134-	=134-	=134-	=134-	=134-	=134-	=134-	=134-	=134-
.	.	1G	fac	1c	fac	.	.	.	.
!LO:LB:g=original	!	!	!	!	!	!	!	!	!
1C	me	1G	me	1c	Me	1e	me	1g	me
=135-	=135-	=135-	=135-	=135-	=135-	=135-	=135-	=135-	=135-
1.GG	te-	1G	te-	0B-	te-	1d	te-	1.b-	te-
.	.	1G	-cu(m)	.	.	1G	-cu(m)	.	.
2AA/	-cu(m)	.	.	.	.	.	.	2a/	-cum
!	!	!	!	!LO:LB:g=original	!	!	!	!LO:LB:g=original	!
=136-	=136-	=136-	=136-	=136-	=136-	=136-	=136-	=136-	=136-
1BB-	plan-	1D	plan-	0B-	-cum	1.d	plan-	1f	plan-
1GG	-ge-	1G	-ge-	.	.	.	.	1g	-ge-
.	.	.	.	.	.	2e\	-ge-	.	.
=137-	=137-	=137-	=137-	=137-	=137-	=137-	=137-	=137-	=137-
0D	-re	1F	-re	1.A	plan-	1f	-re	0a	-re
.	.	2rG	.	.	.	2r	.	.	.
.	.	2F/	fac	2A/	-ge-	2f\	fac	.	.
=138-	=138-	=138-	=138-	=138-	=138-	=138-	=138-	=138-	=138-
00r	.	2c\	ut	0A,<	-re	2e\	ut	00r	.
.	.	2F/	por-	.	.	2f\	por-	.	.
!	!	!LO:LB:g=original	!	!	!	!	!	!	!
.	.	2c\	-te(m)	.	.	2e\	-te(m)	.	.
.	.	2F,</	(Chri-	.	.	2f\	(Chri-	.	.
=139-	=139-	=139-	=139-	=139-	=139-	=139-	=139-	=139-	=139-
.	.	2c\	-st)i	1A,<	fac	2e\	-st)i	.	.
.	.	2.F/	mor-	.	.	1f	mor-	.	.
.	.	.	.	1A,<	ut	.	.	.	.
.	.	4G\	.	.	.	.	.	.	.
.	.	4A\	.	.	.	4e\	.	.	.
.	.	4B-\	.	.	.	4d\	.	.	.
=140-	=140-	=140-	=140-	=140-	=140-	=140-	=140-	=140-	=140-
1r	.	1c	.	1A	por-	1e	-te(m)	1rb	.
2r	.	1F	-tem	1A,<	-te(m)	2rB	.	2r	.
2D/	paſ-	.	.	.	.	2A/	paſ-	2f/	paſ-
=141-	=141-	=141-	=141-	=141-	=141-	=141-	=141-	=141-	=141-
2C/	-si-	00r	.	1A	Chri-	2c/	-s[i]-	2e/	-si-
2D/	-o-	.	.	.	.	2F/	-o-	2f/	-o-
2AA/	-nis	.	.	1A,<	-ſti	2c/	-nis	2e/	-nis
2D/	e-	.	.	.	.	2F/	e-	2f/	e-
=142-	=142-	=142-	=142-	=142-	=142-	=142-	=142-	=142-	=142-
2C/	-i(us)	.	.	1A	mor-	2c/	-i(us)	2e/	-i(us)
1D	ſor-	.	.	.	.	2.F/	ſor-	1f	ſor-
.	.	.	.	1A,<	-te(m)	.	.	.	.
.	.	.	.	.	.	4G/	.	.	.
4C/	.	.	.	.	.	4A/	.	4e/	.
4BB-/	.	.	.	.	.	4B-/	.	4d/	.
=143-	=143-	=143-	=143-	=143-	=143-	=143-	=143-	=143-	=143-
!LO:TX:a:Bi:t=6	!	!	!	!	!	!	!	!LO:TX:a:i:t=4	!
00.AA	tem	1r	.	1A	paſ-	1c	-te(m)	00e	tem
.	.	2A/	et	1A	-si-	2r	.	.	.
.	.	2c\	pla-	.	.	2A/	et	.	.
!	!	!	!	!	!	!LO:LB:g=original	!	!	!
=144-	=144-	=144-	=144-	=144-	=144-	=144-	=144-	=144-	=144-
.	.	2A/	-gas	1A	-o-	2c/	pla-	.	.
.	.	2.c\	re-	.	.	4A\	-gis	.	.
.	.	.	.	.	.	4B-\	.	.	.
.	.	.	.	1A,<	-nis	4c\	.	.	.
.	.	4B-\	.	.	.	4d\	.	.	.
.	.	4A\	.	.	.	1e\	re-	.	.
.	.	4G\	.	.	.	.	.	.	.
=145-	=145-	=145-	=145-	=145-	=145-	=145-	=145-	=145-	=145-
.	.	2A/	.	1A	e-	.	.	00r	.
.	.	2F/	-co-	.	.	1d	-co-	.	.
.	.	1E	-le-	1A,<	-i(us)	.	.	.	.
.	.	.	.	.	.	2c/	-le-	.	.
=146-	=146-	=146-	=146-	=146-	=146-	=146-	=146-	=146-	=146-
0r	.	0D	re	1A	Sor-	1d	-re	.	.
.	.	.	.	1A,<	-te(m)	2rB	.	.	.
.	.	.	.	.	.	1D/	fac	.	.
=147-	=147-	=147-	=147-	=147-	=147-	=147-	=147-	=147-	=147-
1r	.	1r	.	1A,<	et	.	.	00r	.
.	.	.	.	.	.	1F	me	.	.
1D	fac	1d	fac	1A	pla-	.	.	.	.
.	.	.	.	.	.	4E/	.	.	.
.	.	.	.	.	.	4D/	.	.	.
=148-	=148-	=148-	=148-	=148-	=148-	=148-	=148-	=148-	=148-
1AA	me	2.c\	me	1A,<	-gas	1E	pla-	.	.
.	.	4B-\	.	.	.	.	.	.	.
!	!	!	!	!LO:LB:g=original	!	!	!	!	!
!	!	!	!	!LO:TX:t=P:problem=w źródle 1c poprawione na 1A	!	!	!	!	!
1D	pla-	1A	pla-	1A	re-	1F	-gis	.	.
=149-	=149-	=149-	=149-	=149-	=149-	=149-	=149-	=149-	=149-
!	!	!	!	!	!LO:MO:mod=-co-	!	!	!	!
1GG	-gis	1G	-gis	1.B-	-col-	4G/	Vul-	00r	.
.	.	.	.	.	.	4A/	.	.	.
.	.	.	.	.	.	4B-/	.	.	.
.	.	.	.	.	.	4c/	.	.	.
2rGG	.	2rG	.	.	.	2d\	-ne-	.	.
2GG/	Vul-	2G/	Vul-	2B-/	-le-	1e\	-ra-	.	.
=150-	=150-	=150-	=150-	=150-	=150-	=150-	=150-	=150-	=150-
1D	-ne-	2F/	-ne-	1A,<	-re	.	.	.	.
.	.	2D/	-ra-	.	.	1d	.	.	.
1AA	-ra-	1E	-ri	2A/	fac	.	.	.	.
.	.	.	.	2A,</	me	2c/	-ri	.	.
!LO:LB:g=original	!	!	!	!	!	!	!	!	!
=151-	=151-	=151-	=151-	=151-	=151-	=151-	=151-	=151-	=151-
0D	ri	0D	.	1F	pla-	1d	.	0r	.
.	.	.	.	1F,<	-gis	1A	Cru-	.	.
!	!	!LO:LB:g=original	!	!	!	!	!	!	!
=152-	=152-	=152-	=152-	=152-	=152-	=152-	=152-	=152-	=152-
1r	.	1A	Cru-	2F/	Vul-	1D	-ce	1r	.
.	.	.	.	2F/	-ne-	.	.	.	.
1D	Cru-	2D/	-ce	1F	-ra-	2A/	hac	1f	Cru-
.	.	2A/	hac	.	.	2D/	-in-	.	.
=153-	=153-	=153-	=153-	=153-	=153-	=153-	=153-	=153-	=153-
2D/	-ce	2D/	in-	1F,<	-ri	2A/	-e-	2f/	-ce
1D	hac	2A/	-e-	.	.	2D/	-bri-	1f	hac
.	.	2D/	-bri-	2F/	Cru-	1.d	-a-	.	.
2D/	in-	2A/	-a-	2F/	-ce	.	.	2f/	in-
=154-	=154-	=154-	=154-	=154-	=154-	=154-	=154-	=154-	=154-
2BB-/	-e-	2.B-/	.	2F/	hac	.	.	2f/	-e-
2BB-/	-bri-	.	.	2F/	in-	2c/	-ri	2f/	-bri-
.	.	4A\	.	.	.	.	.	.	.
1D	-a-	2.F/	.	2F/	-e-	1A	.	1f	-a-
.	.	.	.	2F/	-bri-	.	.	.	.
.	.	4G/	.	.	.	.	.	.	.
=155-	=155-	=155-	=155-	=155-	=155-	=155-	=155-	=155-	=155-
!	!	!	!	!	!	!LO:TX:t=P:problem=w źródle brak pauzy 1r	!	!	!
1AA	-ri	0A	ri	1c	-a-	1ryy	.	1e	-ri
2r	.	.	.	1c,<	-ri	2r	.	2rg	.
1F\	ob	.	.	.	.	1f\	ob	1a/	ob
=156-	=156-	=156-	=156-	=156-	=156-	=156-	=156-	=156-	=156-
.	.	2r	.	2c/	ob	.	.	.	.
2F\	a-	1A	ob	2c/	a-	2f\	a-	2a/	a-
!	!	!	!	!	!	!LO:LB:g=original	!	!	!
2F\	-mo-	.	.	2c/	-mo-	2f\	-mo-	2a/	-mo-
2F\	-rem	2A/	a-	2c/	-rem	2f\	-rem	2a/	-re(m)
!	!	!	!	!	!	!	!	!LO:LB:g=original	!
=157-	=157-	=157-	=157-	=157-	=157-	=157-	=157-	=157-	=157-
2F\	Fi-	2A/	-mo-	1.c	Fi-	2f\	Fi-	2a/	Fi-
2F\	-li-	2A/	-re(m)	.	.	2f\	-li-	2a/	-li-
1C	-j	2.c\	Fi-	.	.	1e	-j	1g	-j
.	.	.	.	2c/	-li-	.	.	.	.
.	.	4c\	-li-	.	.	.	.	.	.
=158-	=158-	=158-	=158-	=158-	=158-	=158-	=158-	=158-	=158-
2r	.	2G/	-j	1B-,<	-j	2r	.	2r	.
2GG/	In-	2G/	In-	.	.	2d\	In-	2g/	In-
!	!	!	!	!LO:LB:g=original	!	!	!	!	!
2GG/	-flam-	2G/	-flam-	2B-/	in-	2d\	-flam-	2g/	-flam-
2GG/	-ma-	2G/	-ma-	2B-/	-flam-	2d\	-ma-	2d/	-ma-
=159-	=159-	=159-	=159-	=159-	=159-	=159-	=159-	=159-	=159-
*M3/2	*	*M3/2	*	*	*	*M3/2	*	*M3/2	*
*Xtuplet	*	*Xtuplet	*	*	*	*Xtuplet	*	*Xtuplet	*
3%2C	-tus	3%2E	-tuſ	1G	-ma-	3c/	-t(us)	3%2e	-tus
.	.	.	.	.	.	3%2c	et	.	.
3C/	et	3C/	et	.	.	.	.	3e/	et
3GG/	ac-	3G/	ac-	1G	-t(us),	3B-/	ac-	3d/	ac-
3%2C	-cen-	3%2E	-cen-	.	.	3%2c	-cen-	3%2e	-cen-
=160-	=160-	=160-	=160-	=160-	=160-	=160-	=160-	=160-	=160-
3%2BB-	-ſ(us)	3%2F	-ſ(us)	2B-/	et	3%2d	-ſ(us)	3%2d	-ſus
.	.	.	.	2B-/	ac-	.	.	.	.
3GG/	per	3G/	per	.	.	3d\	per	3b-\	per
!LO:LB:g=original	!	!	!	!	!	!	!	!	!
3GG/	te	3G/	te	2B-/	-cen-	3d\	te	3b-/	te
3%2GG	Vir-	3%2G	Vir-	.	.	3%2d	Vir-	3%2g	Vir-
.	.	.	.	2B-,</	-ſ(us)	.	.	.	.
!	!	!LO:LB:g=original	!	!	!	!	!	!	!
=161-	=161-	=161-	=161-	=161-	=161-	=161-	=161-	=161-	=161-
!	!	!	!	!	!	!	!	!LO:N:vis=3%2	!
3%2D	-go	3%2F	-go	2A/	per	3%2f	-go	3%2.a	-go
.	.	.	.	2A/	te	.	.	.	.
3D/	Sim	3F/	Sim	.	.	3f\	Sim	.	Sim
3F\	de-	3F/	de-	2A/	Vir-	3f\	de-	3g/	de-
3%2F	-fen-	3%2A	-fen-	.	.	3%2f	-fen-	3%2f	-fen-
.	.	.	.	2A/	-go	.	.	.	.
=162-	=162-	=162-	=162-	=162-	=162-	=162-	=162-	=162-	=162-
*M2/1	*	*	*	*	*	*	*	*M2/1	*
*met(C|)	*	*	*	*	*	*	*	*met(C|)	*
!LO:TX:a:i:t=4	!	!	!	!	!	!	!	!	!
00C\	sus	3%2c	-ſ(us)	2G/	Sim	3e,<\	-ſ(us)	1g	-ſ(us)
.	.	.	.	.	.	3c/	in	.	.
.	.	.	.	2G/	de-	.	.	.	.
.	.	3c\	in	.	.	3d\	di-	.	.
.	.	3%2c	di-	2G/	-fen-	3.e\	-e	0r	.
.	.	.	.	2G/	-ſ(us)	6f\	.	.	.
.	.	3G/	-e	.	.	3g\	.	.	.
=163-	=163-	=163-	=163-	=163-	=163-	=163-	=163-	=163-	=163-
.	.	3A/	Iu-	2c/	in	3c/	.	.	.
.	.	3G/	.	.	.	3%2g	iu-	.	.
.	.	.	.	2c/	di-	.	.	.	.
.	.	3A/	.	.	.	.	.	.	.
.	.	3F/	-di-	2c/	-e	3%2f	-di-	1r	.
.	.	3%2G	-ci-	.	.	.	.	.	.
.	.	.	.	2c/	ju-	.	.	.	.
.	.	.	.	.	.	3e\	-ci-	.	.
=164-	=164-	=164-	=164-	=164-	=164-	=164-	=164-	=164-	=164-
*	*	*M2/1	*	*	*	*	*	*	*
*	*	*met(C|)	*	*	*	*	*	*	*
2r	.	1F	-j	2.c/	-di-	3%2.f	-j	2r	.
2F\	fac	.	.	.	.	.	.	2a/	Fac
.	.	.	.	4c/	-ci-	.	.	.	.
!	!	!	!	!	!	!LO:LB:g=original	!	!	!
*	*	*	*	*	*	*M2/1	*	*	*
*	*	*	*	*	*	*met(C|)	*	*	*
2E\	me	0r	.	1c,<	-j	0r	.	2g/	me
2F\	Cru-	.	.	.	.	.	.	2a/	Cru-
=165-	=165-	=165-	=165-	=165-	=165-	=165-	=165-	=165-	=165-
*	*	*	*	*	*^	*	*	*	*
*col	*	*	*	*	*	*	*	*	*col	*
!	!	!	!	!LO:TX:a:t=P:problem=w źródle skreślony tekst nad głównym tekstem	!	!	!	!	!	!
2.D/	-ce	.	.	2d/	Fac	[[quan-	.	.	2.f/	-ce
.	.	.	.	2d/	me	-do	.	.	.	.
4D/	Cu-	.	.	.	.	.	.	.	4f/	Cu-
4G\	-ſto-	1r	.	2d/	Cru-	Cor-	1r	.	4b-/	-ſto-
*	*	*	*	*	*	*	*	*	*custos:a	*
2.G\	-di-	.	.	.	.	.	.	.	2.b-/	-di-
.	.	.	.	2d/	-ce	-p(us)]]	.	.	.	.
*Xcol	*	*	*	*	*	*	*	*	*Xcol	*
!	!	!	!	!LO:LB:g=original	!	!	!	!	!LO:LB:g=original	!
*	*	*	*	*	*v	*v	*	*	*	*
=166-	=166-	=166-	=166-	=166-	=166-	=166-	=166-	=166-	=166-
!	!	!	!	!LO:TX:t=P:problem=w źrodle poprawiony tekst	!	!	!	!	!
2D/	-ri	2r	.	2d\	Cu-	2r	.	2a/	-ri
2GG/	Mor-	2G/	Mor-	2d\	-ſto-	2d\	Mor-	2b-/	Mor-
2D/	-te	2F/	-te	2d\	-di-	2f\	-te	2a/	-te
2GG/	(Chri-	2G/	Chri-	2d\	-ri	2d\	(Chri-	2b-/	Chri-
=167-	=167-	=167-	=167-	=167-	=167-	=167-	=167-	=167-	=167-
*col	*	*col	*	*	*	*col	*	*	*
2.C/	-st)i	2.E/	-ſti	2c/	Mor-	2.e\	-st)i	2g/	-ſti
.	.	.	.	2c/	-te	.	.	2g/	prae-
4C/	prae-	4E/	prae-	.	.	4e\	prae-	.	.
4F\	-mu-	4A/	-mu-	2c/	(Chri-	4c\	-mu-	2a/	-mu-
2.F\	-ni-	2.A/	-ni-	.	.	2.f\	-ni-	.	.
.	.	.	.	2c/	-st)i	.	.	2f/	-ni-
*Xcol	*	*Xcol	*	*	*	*Xcol	*	*	*
=168-	=168-	=168-	=168-	=168-	=168-	=168-	=168-	=168-	=168-
*	*	*	*	*	*	*M3/2	*	*M3/2	*
0C	ri	0G	ri	2c/	prae-	3%2e	-ri	3%2g	ri
.	.	.	.	2c/	-mu-	.	.	.	.
.	.	.	.	.	.	3r	.	3rg	.
.	.	.	.	2c/	-ni-	3g\	Con-	3ee\	Con-
.	.	.	.	.	.	3g\	-fo-	3ee\	-fo-
.	.	.	.	2c/	-ri	.	.	.	.
.	.	.	.	.	.	3g\	-ve-	3ee\	-ve-
=169-	=169-	=169-	=169-	=169-	=169-	=169-	=169-	=169-	=169-
0r	.	0r	.	1A	Con-	3%2a	-ri	3ff\	-ri
.	.	.	.	.	.	.	.	3%2ee	gra-
.	.	.	.	.	.	3g\	gra-	.	.
.	.	.	.	1A	-fo-	3f\	.	3%2dd	-ti-
.	.	.	.	.	.	3%2e	-ti-	.	.
.	.	.	.	.	.	.	.	3cc/	.
=170-	=170-	=170-	=170-	=170-	=170-	=170-	=170-	=170-	=170-
*	*	*	*	*	*	*M2/1	*	*M2/1	*
*	*	*	*	*	*	*met(C|)	*	*met(C|)	*
2rBB	.	2r	.	1B-	-ve-	2d\	-a	2dd\	-a
2GG/	qu[a]n-	2G/	quan-	.	.	2d\	qu[an]-	2dd\	quan-
2GG/	-do	2G/	-do	1B-	-ri	2d\	-do	2dd\	-do
2GG/	Cor-	2G/	Cor-	.	.	2d\	Cor-	2dd\	Cor-
!LO:LB:g=original	!	!	!	!	!	!	!	!	!
=171-	=171-	=171-	=171-	=171-	=171-	=171-	=171-	=171-	=171-
*M3/2	*	*M3/2	*	*	*	*	*	*	*
*	*	*	*	*	*	*	*	*col	*
3%2C	-pus	3%2E	-p(us)	1.G	gra-	2e\	-p(us)	2.cc\	-puſ
.	.	.	.	.	.	2c/	Mo-	.	.
3C/	Mo-	3E/	Mo-	.	.	.	.	.	.
.	.	.	.	.	.	.	.	4cc\	Mo-
!	!	!LO:LB:g=original	!	!	!	!	!	!	!
3GG/	-ri-	3G/	-ri-	.	.	2d/	-ri-	4b-/	-ri-
.	.	.	.	.	.	.	.	2.b-/	-e-
3%2GG	-e-	3%2G	-e-	.	.	.	.	.	.
.	.	.	.	2G/	-ti-	2d/	-e-	.	.
*	*	*	*	*	*	*	*	*Xcol	*
=172-	=172-	=172-	=172-	=172-	=172-	=172-	=172-	=172-	=172-
*	*	*	*	*	*	*col	*	*	*
3%2D	-tur	3%2D	-tur	0F	-a	2.f\	-t(ur)	2a/	-t(ur)
.	.	.	.	.	.	.	.	2a/	fac
3D/	fac	3d\	Fac	.	.	.	.	.	.
.	.	.	.	.	.	4f\	fac	.	.
3D/	ut	3d\	ut	.	.	4f\	ut	2a/	ut
.	.	.	.	.	.	1.f\	a-	.	.
3%2D	a-	3%2d	a-	.	.	.	.	.	.
.	.	.	.	.	.	.	.	2a/	-a-
!	!	!	!	!	!	!	!	!LO:LB:g=original	!
=173-	=173-	=173-	=173-	=173-	=173-	=173-	=173-	=173-	=173-
*	*	*	*	*	*	*	*	*col	*
3%2BB-	-ni-	3%2d	-ni-	1B-	Pa-	.	-ni-	2.b-/	-ni-
3BB-/	-mae	3D/	-mae	.	.	.	.	.	.
.	.	.	.	.	.	4d\	-ma	4b-/	-ma
!	!	!	!	!	!	!LO:LB:g=original	!	!	!
3BB-/	do-	3D/	do-	1B-	-ra-	4d\	do-	4f/	do-
.	.	.	.	.	.	2.d\	-ne-	2.g/	-ne-
3%2GG	-ne-	3%2G	-ne-	.	.	.	.	.	.
*	*	*	*	*	*	*Xcol	*	*Xcol	*
*tuplet	*	*tuplet	*	*	*	*tuplet	*	*tuplet	*
=174-	=174-	=174-	=174-	=174-	=174-	=174-	=174-	=174-	=174-
*M2/1	*	*M2/1	*	*	*	*	*	*	*
*met(C|)	*	*met(C|)	*	*	*	*	*	*	*
2.D/	-tur	2F/	-t(ur)	1A	-di-	1f	-t(ur)	0a	tur
.	.	4D/	pa-	.	.	.	.	.	.
4C/	.	4E/	.	.	.	.	.	.	.
4D/	.	4F/	.	1A	-ſi	2r	.	.	.
4E\	.	4G/	.	.	.	.	.	.	.
2F\	.	2A/	.	.	.	2c/	pa-	.	.
!	!	!	!	!LO:LB:g=original	!	!	!	!	!
=175-	=175-	=175-	=175-	=175-	=175-	=175-	=175-	=175-	=175-
2r	.	2D/	-ra-	0.F	glo-	2d/	-ra-	2r	.
2F\	pa-	2A/	-di-	.	.	2c/	-di-	2cc\	pa-
2BB-/	-ra-	2B-/	-ſi	.	.	2.f\	.	2dd\	-ra-
2F\	-di-	2A/	.	.	.	.	.	2cc\	-di-
.	.	.	.	.	.	4e\	.	.	.
=176-	=176-	=176-	=176-	=176-	=176-	=176-	=176-	=176-	=176-
2BB-/	-si	2B-\	glo-	.	.	2d\	-si	2.ff\	-si
2.F\	glo-	2.A/	.	.	.	2c/	glo-	.	.
.	.	.	.	.	.	.	.	4ee\	.
.	.	.	.	1F	-ri-	1f	-ri-	2cc\	.
4E\	-ri-	4G/	.	.	.	.	.	.	.
2D/	-a	4A\	-ri-	.	.	.	.	2dd,<\	.
.	.	4B-\	-a	.	.	.	.	.	.
=177-	=177-	=177-	=177-	=177-	=177-	=177-	=177-	=177-	=177-
!	!	!LO:TX:t=P:problem=w źródle podwójna fermata	!	!	!	!	!	!	!
[0Cl;>\	.	[0cl;;\	.	[0Gl;<\	a	[0el;<\	a	2ee\	.
.	.	.	.	.	.	.	.	1cc	glo-
.	.	.	.	.	.	.	.	4b-\	-ri-
.	.	.	.	.	.	.	.	4a\	.
=178-	=178-	=178-	=178-	=178-	=178-	=178-	=178-	=178-	=178-
!	!	!	!	!	!	!	!	!LO:TX:t=P:problem=w źródle podwójna fermata	!
0C]	.	0c]	.	0G]	.	0e]	.	0g;;	a
=179-	=179-	=179-	=179-	=179-	=179-	=179-	=179-	=179-	=179-
0FF	A-	0c	A-	0F	a-	0f	a-	0a	a-
=180-	=180-	=180-	=180-	=180-	=180-	=180-	=180-	=180-	=180-
!	!	!	!	!LO:TX:t=P:problem=w źródle podwójna fermata	!	!LO:TX:t=P:problem=w źródle podwójna fermata	!	!LO:TX:t=P:problem=w źródle podwójna fermata	!
!LO:TX:t=P:problem=w źródle podwójna fermata	!	!LO:TX:t=P:problem=w źródle podwójna fermata	!	!	!	!	!	!	!
!	!	!	!	!	!	!LO:TX:a:t=P:problem=very like terminal long	!	!LO:TX:a:t=P:problem=very like terminal long	!
!LO:TX:a:t=P:problem=very like terminal long	!	!LO:TX:a:t=P:problem=very like terminal long	!	!LO:TX:a:t=P:problem=very like terminal long	!	!	!	!	!
0FFl;;\	-men	0cl;;	-men.	0Fl;;	-men.	0fl;;	-men.	0al;;	-men
==	==	==	==	==	==	==	==	==	==
*-	*-	*-	*-	*-	*-	*-	*-	*-	*-
!!!system-decoration: [(s1,s2,s3,s4,s5)]
!!!RDF**kern: > = above
!!!RDF**kern: < = below
!!!RDF**kern: l = terminal long
!!!RDF**kern: i = editorial accidental
!!!EED: Wojciech Jakubiak-Danek
!!!EEV: 2021-04-23
!!!ENC: Katarzyna Serwa
!!!END: 2021-02-21
!!!YEC: Copyright 2022 Narodowy Instytut Fryderyka Chopina (https://polishscores.org)
!!!YEM: License CC-BY-4.0 (https://creativecommons.org/licenses/by/4.0)
